icons/linear-ele-media-sound-microphone-square.svg

<svg xmlns="http://www.w3.org/2000/svg" width="32px" height="32px" viewBox="0 0 32 32" version="1.1">
    <title>linear-ele-media-sound-microphone-square</title>
    <g id="linear-ele-media-sound-microphone-square" stroke-width="1" fill-rule="evenodd">
        <path d="M9,30 C8.44771525,30 8,29.5522847 8,29 C8,28.4477153 8.44771525,28 9,28 L15,28 L15,24 L12,24 C9.790861,24 8,22.209139 8,20 L8,6 C8,3.790861 9.790861,2 12,2 L20,2 C22.209139,2 24,3.790861 24,6 L24,20 C24,22.209139 22.209139,24 20,24 L17,24 L17,28 L23,28 C23.5522847,28 24,28.4477153 24,29 C24,29.5522847 23.5522847,30 23,30 L9,30 Z M20,4 L12,4 C10.8954305,4 10,4.8954305 10,6 L10,7 L13,7 C13.5522847,7 14,7.44771525 14,8 C14,8.55228475 13.5522847,9 13,9 L10,9 L10,12 L13,12 C13.5522847,12 14,12.4477153 14,13 C14,13.5522847 13.5522847,14 13,14 L10,14 L10,17 L13,17 C13.5522847,17 14,17.4477153 14,18 C14,18.5522847 13.5522847,19 13,19 L10,19 L10,20 C10,21.1045695 10.8954305,22 12,22 L20,22 C21.1045695,22 22,21.1045695 22,20 L22,19 L19,19 C18.4477153,19 18,18.5522847 18,18 C18,17.4477153 18.4477153,17 19,17 L22,17 L22,14 L19,14 C18.4477153,14 18,13.5522847 18,13 C18,12.4477153 18.4477153,12 19,12 L22,12 L22,9 L19,9 C18.4477153,9 18,8.55228475 18,8 C18,7.44771525 18.4477153,7 19,7 L22,7 L22,6 C22,4.8954305 21.1045695,4 20,4 Z" id="&#24418;&#29366;" fill-rule="nonzero" />
    </g>
</svg>

<svg xmlns="http://www.w3.org/2000/svg" viewBox="0 0 32 32"><path fill="currentColor" d="M9 30a1 1 0 0 1 0-2h6v-4h-3a4 4 0 0 1-4-4V6a4 4 0 0 1 4-4h8a4 4 0 0 1 4 4v14a4 4 0 0 1-4 4h-3v4h6a1 1 0 0 1 0 2zM20 4h-8a2 2 0 0 0-2 2v1h3a1 1 0 0 1 0 2h-3v3h3a1 1 0 0 1 0 2h-3v3h3a1 1 0 0 1 0 2h-3v1a2 2 0 0 0 2 2h8a2 2 0 0 0 2-2v-1h-3a1 1 0 0 1 0-2h3v-3h-3a1 1 0 0 1 0-2h3V9h-3a1 1 0 0 1 0-2h3V6a2 2 0 0 0-2-2"/></svg>
